X: 104201
Q:"Strathspey."
M: C
L: 1/8
K: D
[|\
vD3uF A<A A>uF | vA>vBud>uA F2(F>D) |\
E3G B<B B>uA | vd>uf(ed) B2(B<d) |\
d2(d>f) d<d d>uA | vB>vAud>uA F2(F>D) |\
e2(e>f) e2ue>uf | g>fe>d B2A2 |\
d2(d>f) d<d d>uA | B>Ad>A F2(F>D) |\


